MustReadz/src/components/icons/book-icon.svg

<!DOCTYPE svg PUBLIC "-//W3C//DTD SVG 1.1//EN" "http://www.w3.org/Graphics/SVG/1.1/DTD/svg11.dtd">
<!-- Uploaded to: SVG Repo, www.svgrepo.com, Transformed by: SVG Repo Mixer Tools -->
<svg width="800px" height="800px" viewBox="0 0 24 24" fill="none" xmlns="http://www.w3.org/2000/svg">
<g id="SVGRepo_bgCarrier" stroke-width="0"/>
<g id="SVGRepo_tracerCarrier" stroke-linecap="round" stroke-linejoin="round"/>
<g id="SVGRepo_iconCarrier"> <path d="M19.8978 16H7.89778C6.96781 16 6.50282 16 6.12132 16.1022C5.08604 16.3796 4.2774 17.1883 4 18.2235" stroke="#000000" stroke-width="1.5"/> <path d="M8 7H16" stroke="#000000" stroke-width="1.5" stroke-linecap="round"/> <path d="M8 10.5H13" stroke="#000000" stroke-width="1.5" stroke-linecap="round"/> <path d="M13 16V19.5309C13 19.8065 13 19.9443 12.9051 20C12.8103 20.0557 12.6806 19.9941 12.4211 19.8708L11.1789 19.2808C11.0911 19.2391 11.0472 19.2182 11 19.2182C10.9528 19.2182 10.9089 19.2391 10.8211 19.2808L9.57889 19.8708C9.31943 19.9941 9.18971 20.0557 9.09485 20C9 19.9443 9 19.8065 9 19.5309V16.45" stroke="#000000" stroke-width="1.5" stroke-linecap="round"/> <path d="M10 22C7.17157 22 5.75736 22 4.87868 21.1213C4 20.2426 4 18.8284 4 16V8C4 5.17157 4 3.75736 4.87868 2.87868C5.75736 2 7.17157 2 10 2H14C16.8284 2 18.2426 2 19.1213 2.87868C20 3.75736 20 5.17157 20 8M14 22C16.8284 22 18.2426 22 19.1213 21.1213C20 20.2426 20 18.8284 20 16V12" stroke="#000000" stroke-width="1.5" stroke-linecap="round"/> </g>
</svg>

<svg xmlns="http://www.w3.org/2000/svg" width="800" height="800" viewBox="0 0 24 24" fill="none"><g stroke-width="0"/><g stroke-linecap="round" stroke-linejoin="round"/><g stroke="#fff" stroke-width="1.5" fill="#ffffff000"><path d="M19.898 16h-12c-.93 0-1.395 0-1.777.102A3 3 0 0 0 4 18.224"/><path d="M8 7h8m-8 3.5h5m0 5.5v3.53c0 .276 0 .414-.095.47s-.224-.006-.484-.13l-1.242-.59c-.088-.04-.132-.062-.179-.062s-.091.021-.179.063l-1.242.59c-.26.123-.39.185-.484.129C9 19.944 9 19.806 9 19.53v-3.08" stroke-linecap="round"/><path d="M10 22c-2.828 0-4.243 0-5.121-.879C4 20.243 4 18.828 4 16V8c0-2.828 0-4.243.879-5.121C5.757 2 7.172 2 10 2h4c2.828 0 4.243 0 5.121.879C20 3.757 20 5.172 20 8m-6 14c2.828 0 4.243 0 5.121-.879C20 20.243 20 18.828 20 16v-4" stroke-linecap="round"/></g></svg>
